symbols/ww_drink2.svg

<svg version="1.1" viewBox="0 0 24 24" xmlns="http://www.w3.org/2000/svg">
 <path d="m4.93 3 .102 14.6.0508 2.95 13.9-.102-.0169-5.44-.186-12.3z" fill="#d9ffd9" fill-opacity=".986" stroke-width="0"/>
 <path d="m3.62 8h1.38v7h2v-7h4v2h2v-2h4v7h2v-7h1.61c.55 0 1-.44 1-1 0-.11-.01-.22-.05-.32l-2.56-4.68h-14l-2.28 4.55c-.25.49-.05 1.09.44 1.34.15.07.3.11.46.11m2.62-4h11.5l1 2h-13.5l1-2m-4.24 12v2h2v4h16v-4h2v-2h-20m16 4h-12v-2h12v2m-4.07-9c.28 0 .5.22.5.5v.06l-.38 3c-.05.25-.24.44-.49.44h-3.12c-.25 0-.44-.19-.49-.44l-.38-3c-.03-.27.16-.52.43-.56h.07 3.86z" fill="#0cabef" stroke="#0029e3" stroke-width=".2"/>
</svg>

<?xml version="1.0" encoding="UTF-8" standalone="no"?>
<svg
   xmlns:dc="http://purl.org/dc/elements/1.1/"
   xmlns:cc="http://creativecommons.org/ns#"
   xmlns:rdf="http://www.w3.org/1999/02/22-rdf-syntax-ns#"
   xmlns:svg="http://www.w3.org/2000/svg"
   xmlns="http://www.w3.org/2000/svg"
   xmlns:sodipodi="http://sodipodi.sourceforge.net/DTD/sodipodi-0.dtd"
   xmlns:inkscape="http://www.inkscape.org/namespaces/inkscape"
   version="1.1"
   id="mdi-water-well-outline"
   width="24"
   height="24"
   viewBox="0 0 24 24"
   sodipodi:docname="ww_drink2.svg"
   inkscape:version="0.92.4 (5da689c313, 2019-01-14)">
  <metadata
     id="metadata9">
    <rdf:RDF>
      <cc:Work
         rdf:about="">
        <dc:format>image/svg+xml</dc:format>
        <dc:type
           rdf:resource="http://purl.org/dc/dcmitype/StillImage" />
        <dc:title></dc:title>
      </cc:Work>
    </rdf:RDF>
  </metadata>
  <defs
     id="defs7" />
  <sodipodi:namedview
     pagecolor="#ffffff"
     bordercolor="#666666"
     borderopacity="1"
     objecttolerance="10"
     gridtolerance="10"
     guidetolerance="10"
     inkscape:pageopacity="0"
     inkscape:pageshadow="2"
     inkscape:window-width="1621"
     inkscape:window-height="845"
     id="namedview5"
     showgrid="false"
     inkscape:zoom="19.666667"
     inkscape:cx="1.7422928"
     inkscape:cy="13.519029"
     inkscape:window-x="162"
     inkscape:window-y="61"
     inkscape:window-maximized="0"
     inkscape:current-layer="mdi-water-well-outline" />
  <g
     inkscape:groupmode="layer"
     id="layer1"
     inkscape:label="bkg">
    <path
       style="fill:#d9ffd9;stroke:#0000ff;stroke-width:0;stroke-linecap:butt;stroke-linejoin:miter;stroke-opacity:1;stroke-miterlimit:4;stroke-dasharray:none;fill-opacity:0.9861111"
       d="M 4.9322034,3 5.0338983,17.59322 5.0847458,20.542373 19.016949,20.440678 19,15 18.813559,2.7457627 Z"
       id="path826"
       inkscape:connector-curvature="0" />
  </g>
  <path
     d="M3.62 8H5V15H7V8H11V10H13V8H17V15H19V8H20.61C21.16 8 21.61 7.56 21.61 7C21.61 6.89 21.6 6.78 21.56 6.68L19 2H5L2.72 6.55C2.47 7.04 2.67 7.64 3.16 7.89C3.31 7.96 3.46 8 3.62 8M6.24 4H17.76L18.76 6H5.24L6.24 4M2 16V18H4V22H20V18H22V16H2M18 20H6V18H18V20M13.93 11C14.21 11 14.43 11.22 14.43 11.5C14.43 11.5 14.43 11.54 14.43 11.56L14.05 14.56C14 14.81 13.81 15 13.56 15H10.44C10.19 15 10 14.81 9.95 14.56L9.57 11.56C9.54 11.29 9.73 11.04 10 11C10.03 11 10.05 11 10.07 11H13.93Z"
     id="path2"
     style="fill:#0cabef;fill-opacity:1;stroke:#0029e3;stroke-opacity:1;stroke-width:0.2;stroke-miterlimit:4;stroke-dasharray:none" />
</svg>
